www/assets/icons/handyman.svg

<svg width="24" height="24" viewBox="0 0 24 24" xmlns="http://www.w3.org/2000/svg" fill='currentColor'><path d="M21.6888 18.6688L16.3888 13.3688H15.3988L12.8588 15.9088V16.8988L18.1588 22.1988C18.5488 22.5888 19.1788 22.5888 19.5688 22.1988L21.6888 20.0788C22.0788 19.6988 22.0788 19.0588 21.6888 18.6688Z"/><path d="M17.3588 10.6888L18.7688 9.27878L20.8888 11.3988C22.0588 10.2288 22.0588 8.32878 20.8888 7.15878L17.3488 3.61878L15.9388 5.02878V2.20878L15.2388 1.49878L11.6988 5.03878L12.4088 5.74878H15.2388L13.8288 7.15878L14.8888 8.21878L11.9988 11.1088L7.8688 6.97878V5.55878L4.8488 2.53878L2.0188 5.36878L5.0488 8.39878H6.4588L10.5888 12.5288L9.7388 13.3788H7.6188L2.3188 18.6788C1.9288 19.0688 1.9288 19.6988 2.3188 20.0888L4.4388 22.2088C4.8288 22.5988 5.4588 22.5988 5.8488 22.2088L11.1488 16.9088V14.7888L16.2988 9.63878L17.3588 10.6888Z"/></svg>

<svg xmlns="http://www.w3.org/2000/svg" width="24" height="24" viewBox="0 0 24 24" fill='currentColor'><path d="m21.689 18.669-5.3-5.3h-.99l-2.54 2.54v.99l5.3 5.3c.39.39 1.02.39 1.41 0l2.12-2.12a.996.996 0 0 0 0-1.41"/><path d="m17.359 10.689 1.41-1.41 2.12 2.12a3 3 0 0 0 0-4.24l-3.54-3.54-1.41 1.41v-2.82l-.7-.71-3.54 3.54.71.71h2.83l-1.41 1.41 1.06 1.06-2.89 2.89-4.13-4.13v-1.42l-3.02-3.02-2.83 2.83 3.03 3.03h1.41l4.13 4.13-.85.85h-2.12l-5.3 5.3a.996.996 0 0 0 0 1.41l2.12 2.12c.39.39 1.02.39 1.41 0l5.3-5.3v-2.12l5.15-5.15z"/></svg>
